Costumes/tabla-b.svg

<?xml version="1.0" encoding="UTF-8" standalone="no"?>
<svg
   version="1.1"
   width="126.47158"
   height="106.04787"
   viewBox="3 3 126.47158 106.04787"
   id="svg28"
   sodipodi:docname="tabla-b.svg"
   xmlns:inkscape="http://www.inkscape.org/namespaces/inkscape"
   xmlns:sodipodi="http://sodipodi.sourceforge.net/DTD/sodipodi-0.dtd"
   xmlns="http://www.w3.org/2000/svg"
   xmlns:svg="http://www.w3.org/2000/svg">
  <defs
     id="defs32" />
  <sodipodi:namedview
     id="namedview30"
     pagecolor="#ffffff"
     bordercolor="#000000"
     borderopacity="0.25"
     inkscape:showpageshadow="2"
     inkscape:pageopacity="0.0"
     inkscape:pagecheckerboard="0"
     inkscape:deskcolor="#d1d1d1" />
  <!-- Exported by Scratch - http://scratch.mit.edu/ -->
  <g
     id="ID0.21271341387182474"
     transform="matrix(0.77378094,0,0,0.77378094,-110.98913,-89.644153)">
    <g
       id="ID0.2265301109291613"
       transform="translate(143,115)">
      <path
         id="ID0.36331856762990355"
         fill="#000000"
         stroke="none"
         stroke-linecap="round"
         d="m 118.75,224.5 c 17.312,0 33,2.213 44.359,5.788 11.36,3.576 18.391,8.513 18.391,13.962 0,5.449 -7.031,10.386 -18.391,13.962 -11.359,3.575 -27.047,5.788 -44.359,5.788 -17.312,0 -33,-2.213 -44.359,-5.788 C 63.031,254.636 56,249.699 56,244.25 c 0,-5.449 7.031,-10.386 18.391,-13.962 11.359,-3.575 27.047,-5.788 44.359,-5.788 z"
         transform="matrix(0.7980417,0.08809886,-0.12756893,1.1555805,-5.15,-198.35)" />
      <path
         id="ID0.3923717634752393"
         fill="#663b00"
         stroke="#000000"
         stroke-width="2"
         stroke-linecap="round"
         d="m 103.25,110.15 145.5,-8.4 c 48.452,-2.797 34.574,2.217 46.7,12.85 10.448,9.163 9.961,25.653 12.6,38.7 4.399,22.112 10.879,44.606 8.45,66.45 -1.544,13.815 -9.11,27.057 -19.35,37 -14.301,13.862 -32.49,26.352 -51.75,30 -30.822,5.83 -63.696,6.278 -94.2,-1 C 129.127,280.477 108.896,267.4 92.75,251.7 82.344,241.551 76.216,227.397 75.1,213.85 c -1.661,-21.297 4.226,-42.868 9.65,-62.5 4.009,-14.495 4.083,-36.923 18.5,-41.2 z"
         transform="matrix(0.45803639,0.05056438,-0.05056438,0.45803639,-18.8,-43.3)" />
      <path
         id="ID0.7147510801441967"
         fill="none"
         stroke="#ffe9cc"
         stroke-width="7"
         stroke-linecap="round"
         d="M 95,130 C 88.558,159.86 83.366,169.321 83.5,189.5 83.57,199.814 96,218 96,218"
         transform="matrix(0.77041721,0.08504929,-0.08504929,0.77041721,-20.15,-83.5)" />
      <path
         id="ID0.524744383059442"
         fill="none"
         stroke="#ffe9cc"
         stroke-width="7"
         stroke-linecap="round"
         d="m 136,221 c 0,0 5.754,-21.926 5.5,-33.5 -0.406,-18.503 -8,-55 -8,-55"
         transform="matrix(0.77041721,0.08504929,-0.08504929,0.77041721,-20.15,-83.5)" />
      <path
         id="ID0.6405112035572529"
         fill="none"
         stroke="#ffe9cc"
         stroke-width="7"
         stroke-linecap="round"
         d="m 157,132 c 0,0 11.1,33 10.5,50 -0.45,12.7 -14.935,34.477 -12.5,35 2.514,0.57 26.032,-17.487 29,-31.5 4.041,-19.93 -10,-60.5 -10,-60.5"
         transform="matrix(0.77041721,0.08504929,-0.08504929,0.77041721,-21,-82.8)" />
      <path
         id="path7"
         fill="none"
         stroke="#ffe9cc"
         stroke-width="7"
         stroke-linecap="round"
         d="m 135.25,222 c 0,0 -7.407,-26.286 -7.5,-39.5 -0.055,-16.761 5.75,-50 5.75,-50"
         transform="matrix(0.77041721,0.08504929,-0.08504929,0.77041721,-32.7,-84.45)" />
      <path
         id="ID0.6905003897845745"
         fill="none"
         stroke="#ffe9cc"
         stroke-width="7"
         stroke-linecap="round"
         d="m 72.5,126 c 0,0 -6.8,18.35 -8,28 -1.5,11.65 -5.4,25.05 -0.5,36 5.3,11.95 17.503,20.456 28.5,26.5 9.079,5.049 20.221,5.03 30.5,6.5 3.794,0.543 7.371,-0.537 11,-1 5.532,-0.204 11.274,0.186 16.5,-1 2.254,-0.514 6,-3.5 6,-3.5"
         transform="matrix(0.77041721,0.08504929,-0.08504929,0.77041721,-20.15,-83.5)" />
      <path
         id="ID0.4903492908924818"
         fill="#ffffff"
         stroke="#000000"
         stroke-width="3"
         d="m 187,81 c 25.106,0 47.856,3.081 64.33,8.06 16.473,4.978 26.67,11.853 26.67,19.44 0,7.587 -10.197,14.462 -26.67,19.44 -16.474,4.979 -39.224,8.06 -64.33,8.06 -25.106,0 -47.856,-3.081 -64.33,-8.06 C 106.197,122.962 96,116.087 96,108.5 96,100.913 106.197,94.038 122.67,89.06 139.144,84.081 161.894,81 187,81 Z"
         transform="matrix(0.50017846,0.0552166,-0.04524181,0.40982202,-23.1,-37.1)" />
      <path
         id="ID0.05982814775779843"
         fill="#000000"
         stroke="#000000"
         stroke-width="2"
         d="m 198.5,101 c 8.415,0 16.04,1.065 21.561,2.784 5.521,1.72 8.939,4.095 8.939,6.716 0,2.621 -3.418,4.996 -8.939,6.716 -5.521,1.719 -13.146,2.784 -21.561,2.784 -8.415,0 -16.04,-1.065 -21.561,-2.784 -5.521,-1.72 -8.939,-4.095 -8.939,-6.716 0,-2.621 3.418,-4.996 8.939,-6.716 C 182.46,102.065 190.085,101 198.5,101 Z"
         transform="matrix(0.45803639,0.05056438,-0.05056438,0.45803639,-18.8,-43.3)" />
      <path
         id="ID0.23072667652741075"
         fill="none"
         stroke="#ffffff"
         stroke-width="4"
         stroke-linecap="round"
         d="m 62.5,214 c 0,0 6.78,9.588 11.5,12 10.039,5.125 20.83,9.521 32,11 15.77,2.087 31.876,2.215 47.5,0 9.643,-1.686 18.935,-6.002 27,-11.5 4.125,-2.814 8.5,-12.5 8.5,-12.5"
         transform="matrix(0.77041721,0.08504929,-0.08504929,0.77041721,-20.15,-83.5)" />
    </g>
    <g
       id="ID0.06147985206916928"
       transform="translate(143,115)">
      <path
         id="path14"
         fill="#000000"
         stroke="none"
         stroke-linecap="round"
         d="m 118.75,224.5 c 17.312,0 33,2.213 44.359,5.788 11.36,3.576 18.391,8.513 18.391,13.962 0,5.449 -7.031,10.386 -18.391,13.962 -11.359,3.575 -27.047,5.788 -44.359,5.788 -17.312,0 -33,-2.213 -44.359,-5.788 C 63.031,254.636 56,249.699 56,244.25 c 0,-5.449 7.031,-10.386 18.391,-13.962 11.359,-3.575 27.047,-5.788 44.359,-5.788 z"
         transform="matrix(0.56355214,-0.09890421,0.1500527,0.85499418,28.7,-73.3)" />
      <path
         id="ID0.0939373173750937"
         fill="#663b00"
         stroke="#000000"
         stroke-width="2"
         stroke-linecap="round"
         d="m 281.5,136 0.3,0.3 c -0.067,0.599 39.821,-0.046 59.7,-0.3 4.97,-0.063 2.004,-0.319 3,-0.5 2.667,-0.485 5.342,-0.968 8,-1.5 1.505,-0.301 2.983,-0.767 4.5,-1 0.658,-0.101 1.334,0 2,0 1.498,0 3.005,-0.107 4.5,0 0.847,0.06 1.656,0.406 2.5,0.5 0.662,0.074 1.347,-0.131 2,0 1.033,0.207 1.967,0.793 3,1 0.653,0.131 1.334,0 2,0 0.666,0 1.345,0.123 2,0 2.024,-0.38 4.125,-0.648 6,-1.5 0.469,-0.213 -0.811,-4.728 -0.5,-1 1.244,14.914 2.741,29.851 4.15,44.75 2.52,26.643 9.957,53.338 7.65,80 -0.839,9.691 -9.461,17.448 -16.65,24 -6.885,6.274 -15.737,10.346 -24.5,13.5 -5.668,2.035 -11.776,1.866 -17.7,2.05 -7.347,-0.268 -15.076,0.011 -21.95,-2.3 -8.828,-2.969 -17.666,-7.17 -24.5,-13.5 -7.536,-6.98 -16.614,-15.167 -17.5,-25.4 -2.27,-26.228 5.786,-52.414 8.5,-78.6 1.448,-13.974 2.678,-28.013 4,-42 z"
         transform="matrix(0.45388201,-0.07965694,0.07918718,0.45120534,-40.1,23.5)" />
      <path
         id="path17"
         fill="none"
         stroke="#ffe9cc"
         stroke-width="5"
         stroke-linecap="round"
         d="m 162.15,129.5 c 0,0 6.514,41.173 7,61.5 0.193,7.835 -7.411,22.821 -5,23 2.414,0.18 16.476,-12.7 17.5,-22 2.396,-21.764 -7.5,-65.5 -7.5,-65.5"
         transform="matrix(0.76342946,-0.13398297,0.13398297,0.76342946,-14.45,-14.4)" />
      <path
         id="path19"
         fill="none"
         stroke="#ffe9cc"
         stroke-width="5"
         stroke-linecap="round"
         d="m 162.15,129.5 c 0,0 6.514,41.173 7,61.5 0.193,7.835 -7.411,22.821 -5,23 2.414,0.18 16.476,-12.7 17.5,-22 2.396,-21.764 -7.5,-65.5 -7.5,-65.5"
         transform="matrix(-0.76342946,0.13398297,0.13398297,0.76342946,223.6,-55.6)" />
      <path
         id="ID0.3397635603323579"
         fill="#ffffff"
         stroke="#000000"
         stroke-width="2"
         d="m 323,106 c 11.863,0 22.613,1.737 30.398,4.543 7.784,2.806 12.602,6.681 12.602,10.957 0,4.276 -4.818,8.151 -12.602,10.957 C 345.613,135.263 334.863,137 323,137 311.137,137 300.387,135.263 292.602,132.457 284.818,129.651 280,125.776 280,121.5 c 0,-4.276 4.818,-8.151 12.602,-10.957 C 300.387,107.737 311.137,106 323,106 Z"
         transform="matrix(0.52093273,-0.09142444,0.07918718,0.45120534,-57.05,31)" />
      <path
         id="ID0.237257300876081"
         fill="#000000"
         stroke="none"
         d="m 327.5,127 c 5.656,0 10.781,0.952 14.492,2.491 3.711,1.539 6.008,3.664 6.008,6.009 0,2.345 -2.297,4.47 -6.008,6.009 -3.711,1.539 -8.836,2.491 -14.492,2.491 -5.656,0 -10.781,-0.952 -14.492,-2.491 C 309.297,139.97 307,137.845 307,135.5 c 0,-2.345 2.297,-4.47 6.008,-6.009 3.711,-1.539 8.836,-2.491 14.492,-2.491 z"
         transform="matrix(0.45388201,-0.07965694,0.07918718,0.45120534,-38.75,21.85)" />
      <path
         id="ID0.000271389726549387"
         fill="none"
         stroke="#ffe9cc"
         stroke-width="7"
         stroke-linecap="round"
         d="m 271.5,251.5 c 0,0 5.875,4.079 9,4.5 4.336,0.554 9.117,0.493 13,0 2.591,-0.333 7.5,-2.5 7.5,-2.5"
         transform="matrix(0.58669031,-0.10296499,0.13398297,0.76342946,-69.15,-36.7)" />
      <path
         id="path24"
         fill="none"
         stroke="#ffffff"
         stroke-width="4"
         stroke-linecap="round"
         d="m 62.5,214 c 0,0 6.78,9.588 11.5,12 10.039,5.125 20.83,9.521 32,11 15.77,2.087 31.876,2.215 47.5,0 9.643,-1.686 18.935,-6.002 27,-11.5 4.125,-2.814 8.5,-12.5 8.5,-12.5"
         transform="matrix(0.54148656,-0.09503167,0.08962432,0.51067573,45.1,26.2)" />
    </g>
  </g>
</svg>

<svg version="1.1" width="166" height="140" viewBox="3 3 166 140" xmlns="http://www.w3.org/2000/svg" xmlns:xlink="http://www.w3.org/1999/xlink">
  <!-- Exported by Scratch - http://scratch.mit.edu/ -->
  <g id="ID0.21271341387182474" transform="matrix(0.7737809419631958, 0, 0, 0.7737809419631958, -110.45, -89.5)">
    <g id="ID0.2265301109291613" transform="matrix(1, 0, 0, 1, 143, 115)">
      <path id="ID0.36331856762990355" fill="#000000" stroke="none" stroke-linecap="round" d="M 118.750 224.500 C 136.062 224.500 151.750 226.713 163.109 230.288 C 174.469 233.864 181.500 238.801 181.500 244.250 C 181.500 249.699 174.469 254.636 163.109 258.212 C 151.750 261.787 136.062 264 118.750 264 C 101.438 264 85.750 261.787 74.391 258.212 C 63.031 254.636 56 249.699 56 244.250 C 56 238.801 63.031 233.864 74.391 230.288 C 85.750 226.713 101.438 224.500 118.750 224.500 Z " transform="matrix(0.7980417013168335, 0.08809886127710342, -0.12756893038749695, 1.1555805206298828, -5.15, -198.35)"/>
      <path id="ID0.3923717634752393" fill="#663B00" stroke="#000000" stroke-width="2" stroke-linecap="round" d="M 103.250 110.150 L 248.750 101.750 C 297.202 98.953 283.324 103.967 295.450 114.600 C 305.898 123.763 305.411 140.253 308.050 153.300 C 312.449 175.412 318.929 197.906 316.500 219.750 C 314.956 233.565 307.390 246.807 297.150 256.750 C 282.849 270.612 264.660 283.102 245.400 286.750 C 214.578 292.580 181.704 293.028 151.200 285.750 C 129.127 280.477 108.896 267.400 92.750 251.700 C 82.344 241.551 76.216 227.397 75.100 213.850 C 73.439 192.553 79.326 170.982 84.750 151.350 C 88.759 136.855 88.833 114.427 103.250 110.150 Z " transform="matrix(0.4580363929271698, 0.05056438222527504, -0.05056438222527504, 0.4580363929271698, -18.8, -43.3)"/>
      <path id="ID0.7147510801441967" fill="none" stroke="#FFE9CC" stroke-width="7" stroke-linecap="round" d="M 95 130 C 88.558 159.860 83.366 169.321 83.500 189.500 C 83.570 199.814 96 218 96 218 " transform="matrix(0.7704172134399414, 0.08504928648471832, -0.08504928648471832, 0.7704172134399414, -20.15, -83.5)"/>
      <path id="ID0.524744383059442" fill="none" stroke="#FFE9CC" stroke-width="7" stroke-linecap="round" d="M 136 221 C 136 221 141.754 199.074 141.500 187.500 C 141.094 168.997 133.500 132.500 133.500 132.500 " transform="matrix(0.7704172134399414, 0.08504928648471832, -0.08504928648471832, 0.7704172134399414, -20.15, -83.5)"/>
      <path id="ID0.6405112035572529" fill="none" stroke="#FFE9CC" stroke-width="7" stroke-linecap="round" d="M 157 132 C 157 132 168.100 165 167.500 182 C 167.050 194.700 152.565 216.477 155 217 C 157.514 217.570 181.032 199.513 184 185.500 C 188.041 165.570 174 125 174 125 " transform="matrix(0.7704172134399414, 0.08504928648471832, -0.08504928648471832, 0.7704172134399414, -21, -82.8)"/>
      <path id="ID0.524744383059442" fill="none" stroke="#FFE9CC" stroke-width="7" stroke-linecap="round" d="M 135.250 222 C 135.250 222 127.843 195.714 127.750 182.500 C 127.695 165.739 133.500 132.500 133.500 132.500 " transform="matrix(0.7704172134399414, 0.08504928648471832, -0.08504928648471832, 0.7704172134399414, -32.7, -84.45)"/>
      <path id="ID0.6905003897845745" fill="none" stroke="#FFE9CC" stroke-width="7" stroke-linecap="round" d="M 72.500 126 C 72.500 126 65.700 144.350 64.500 154 C 63 165.650 59.100 179.050 64 190 C 69.300 201.950 81.503 210.456 92.500 216.500 C 101.579 221.549 112.721 221.530 123 223 C 126.794 223.543 130.371 222.463 134 222 C 139.532 221.796 145.274 222.186 150.500 221 C 152.754 220.486 156.500 217.500 156.500 217.500 " transform="matrix(0.7704172134399414, 0.08504928648471832, -0.08504928648471832, 0.7704172134399414, -20.15, -83.5)"/>
      <path id="ID0.4903492908924818" fill="#FFFFFF" stroke="#000000" stroke-width="3" d="M 187 81 C 212.106 81 234.856 84.081 251.330 89.060 C 267.803 94.038 278 100.913 278 108.500 C 278 116.087 267.803 122.962 251.330 127.940 C 234.856 132.919 212.106 136 187 136 C 161.894 136 139.144 132.919 122.670 127.940 C 106.197 122.962 96 116.087 96 108.500 C 96 100.913 106.197 94.038 122.670 89.060 C 139.144 84.081 161.894 81 187 81 Z " transform="matrix(0.5001784563064575, 0.05521659925580025, -0.045241810381412506, 0.409822016954422, -23.1, -37.1)"/>
      <path id="ID0.05982814775779843" fill="#000000" stroke="#000000" stroke-width="2" d="M 198.500 101 C 206.915 101 214.540 102.065 220.061 103.784 C 225.582 105.504 229 107.879 229 110.500 C 229 113.121 225.582 115.496 220.061 117.216 C 214.540 118.935 206.915 120 198.500 120 C 190.085 120 182.460 118.935 176.939 117.216 C 171.418 115.496 168 113.121 168 110.500 C 168 107.879 171.418 105.504 176.939 103.784 C 182.460 102.065 190.085 101 198.500 101 Z " transform="matrix(0.4580363929271698, 0.05056438222527504, -0.05056438222527504, 0.4580363929271698, -18.8, -43.3)"/>
      <path id="ID0.23072667652741075" fill="none" stroke="#FFFFFF" stroke-width="4" stroke-linecap="round" d="M 62.500 214 C 62.500 214 69.280 223.588 74 226 C 84.039 231.125 94.830 235.521 106 237 C 121.770 239.087 137.876 239.215 153.500 237 C 163.143 235.314 172.435 230.998 180.500 225.500 C 184.625 222.686 189 213 189 213 " transform="matrix(0.7704172134399414, 0.08504928648471832, -0.08504928648471832, 0.7704172134399414, -20.15, -83.5)"/>
    </g>
    <g id="ID0.06147985206916928" transform="matrix(1, 0, 0, 1, 143, 115)">
      <path id="ID0.36331856762990355" fill="#000000" stroke="none" stroke-linecap="round" d="M 118.750 224.500 C 136.062 224.500 151.750 226.713 163.109 230.288 C 174.469 233.864 181.500 238.801 181.500 244.250 C 181.500 249.699 174.469 254.636 163.109 258.212 C 151.750 261.787 136.062 264 118.750 264 C 101.438 264 85.750 261.787 74.391 258.212 C 63.031 254.636 56 249.699 56 244.250 C 56 238.801 63.031 233.864 74.391 230.288 C 85.750 226.713 101.438 224.500 118.750 224.500 Z " transform="matrix(0.5635521411895752, -0.09890420734882355, 0.15005269646644592, 0.8549941778182983, 28.7, -73.3)"/>
      <path id="ID0.0939373173750937" fill="#663B00" stroke="#000000" stroke-width="2" stroke-linecap="round" d="M 281.500 136 L 281.800 136.300 C 281.733 136.899 321.621 136.254 341.500 136 C 346.470 135.937 343.504 135.681 344.500 135.500 C 347.167 135.015 349.842 134.532 352.500 134 C 354.005 133.699 355.483 133.233 357 133 C 357.658 132.899 358.334 133 359 133 C 360.498 133 362.005 132.893 363.500 133 C 364.347 133.060 365.156 133.406 366 133.500 C 366.662 133.574 367.347 133.369 368 133.500 C 369.033 133.707 369.967 134.293 371 134.500 C 371.653 134.631 372.334 134.500 373 134.500 C 373.666 134.500 374.345 134.623 375 134.500 C 377.024 134.120 379.125 133.852 381 133 C 381.469 132.787 380.189 128.272 380.500 132 C 381.744 146.914 383.241 161.851 384.650 176.750 C 387.170 203.393 394.607 230.088 392.300 256.750 C 391.461 266.441 382.839 274.198 375.650 280.750 C 368.765 287.024 359.913 291.096 351.150 294.250 C 345.482 296.285 339.374 296.116 333.450 296.300 C 326.103 296.032 318.374 296.311 311.500 294 C 302.672 291.031 293.834 286.830 287 280.500 C 279.464 273.520 270.386 265.333 269.500 255.100 C 267.230 228.872 275.286 202.686 278 176.500 C 279.448 162.526 280.678 148.487 282 134.500 Z " transform="matrix(0.45388200879096985, -0.0796569436788559, 0.07918718457221985, 0.4512053430080414, -40.1, 23.5)"/>
      <path id="ID0.6405112035572529" fill="none" stroke="#FFE9CC" stroke-width="5" stroke-linecap="round" d="M 162.150 129.500 C 162.150 129.500 168.664 170.673 169.150 191 C 169.343 198.835 161.739 213.821 164.150 214 C 166.564 214.180 180.626 201.300 181.650 192 C 184.046 170.236 174.150 126.500 174.150 126.500 " transform="matrix(0.7634294629096985, -0.13398297131061554, 0.13398297131061554, 0.7634294629096985, -14.45, -14.4)"/>
      <path id="ID0.6405112035572529" fill="none" stroke="#FFE9CC" stroke-width="5" stroke-linecap="round" d="M 162.150 129.500 C 162.150 129.500 168.664 170.673 169.150 191 C 169.343 198.835 161.739 213.821 164.150 214 C 166.564 214.180 180.626 201.300 181.650 192 C 184.046 170.236 174.150 126.500 174.150 126.500 " transform="matrix(-0.7634294629096985, 0.13398297131061554, 0.13398297131061554, 0.7634294629096985, 223.6, -55.6)"/>
      <path id="ID0.3397635603323579" fill="#FFFFFF" stroke="#000000" stroke-width="2" d="M 323 106 C 334.863 106 345.613 107.737 353.398 110.543 C 361.182 113.349 366 117.224 366 121.500 C 366 125.776 361.182 129.651 353.398 132.457 C 345.613 135.263 334.863 137 323 137 C 311.137 137 300.387 135.263 292.602 132.457 C 284.818 129.651 280 125.776 280 121.500 C 280 117.224 284.818 113.349 292.602 110.543 C 300.387 107.737 311.137 106 323 106 Z " transform="matrix(0.5209327340126038, -0.09142443537712097, 0.07918718457221985, 0.4512053430080414, -57.05, 31)"/>
      <path id="ID0.237257300876081" fill="#000000" stroke="none" d="M 327.500 127 C 333.156 127 338.281 127.952 341.992 129.491 C 345.703 131.030 348 133.155 348 135.500 C 348 137.845 345.703 139.970 341.992 141.509 C 338.281 143.048 333.156 144 327.500 144 C 321.844 144 316.719 143.048 313.008 141.509 C 309.297 139.970 307 137.845 307 135.500 C 307 133.155 309.297 131.030 313.008 129.491 C 316.719 127.952 321.844 127 327.500 127 Z " transform="matrix(0.45388200879096985, -0.0796569436788559, 0.07918718457221985, 0.4512053430080414, -38.75, 21.85)"/>
      <path id="ID0.000271389726549387" fill="none" stroke="#FFE9CC" stroke-width="7" stroke-linecap="round" d="M 271.500 251.500 C 271.500 251.500 277.375 255.579 280.500 256 C 284.836 256.554 289.617 256.493 293.500 256 C 296.091 255.667 301 253.500 301 253.500 " transform="matrix(0.5866903066635132, -0.10296498984098434, 0.13398297131061554, 0.7634294629096985, -69.15, -36.7)"/>
      <path id="ID0.23072667652741075" fill="none" stroke="#FFFFFF" stroke-width="4" stroke-linecap="round" d="M 62.500 214 C 62.500 214 69.280 223.588 74 226 C 84.039 231.125 94.830 235.521 106 237 C 121.770 239.087 137.876 239.215 153.500 237 C 163.143 235.314 172.435 230.998 180.500 225.500 C 184.625 222.686 189 213 189 213 " transform="matrix(0.5414865612983704, -0.09503167122602463, 0.0896243155002594, 0.5106757283210754, 45.1, 26.2)"/>
    </g>
  </g>
</svg>
